components/Common/Svg/svgs/testing.svg

<svg
  width="40"
  height="40"
  viewBox="0 0 40 40"
  fill="none"
  xmlns="http://www.w3.org/2000/svg"
>
  <path
    d="M17.451 34.9143H9.57869C8.04073 34.9143 6.78934 33.6629 6.78934 32.1249V11.0654C6.78934 9.52741 8.04073 8.27602 9.57869 8.27602H13.9643V8.97336C13.9643 11.2806 15.8411 13.1574 18.1483 13.1574C20.4552 13.1574 22.3323 11.2806 22.3323 8.97336V8.27602H26.7255C28.2635 8.27602 29.5149 9.52741 29.5149 11.0654V21.6649C29.5149 22.4352 30.1392 23.0595 30.9095 23.0595C31.6796 23.0595 32.3042 22.4352 32.3042 21.6649V11.0654C32.3042 7.98919 29.8014 5.48668 26.7255 5.48668H22.3323V3.39467C22.3323 2.62433 21.7077 2 20.9376 2H15.3589C14.5886 2 13.9643 2.62433 13.9643 3.39467V5.48668H9.57869C6.50251 5.48668 4 7.98919 4 11.0654V32.1249C4 35.2011 6.50251 37.7036 9.57869 37.7036H17.451C18.221 37.7036 18.8456 37.0793 18.8456 36.3089C18.8456 35.5386 18.221 34.9143 17.451 34.9143ZM16.7536 4.78934H19.543V8.97336C19.543 9.74234 18.9173 10.368 18.1483 10.368C17.379 10.368 16.7536 9.74234 16.7536 8.97336V4.78934ZM26.7255 18.8755C26.7255 19.6459 26.1009 20.2702 25.3309 20.2702H15.7773C15.007 20.2702 14.3827 19.6459 14.3827 18.8755C14.3827 18.1052 15.007 17.4809 15.7773 17.4809H25.3309C26.1009 17.4809 26.7255 18.1052 26.7255 18.8755ZM26.7255 24.4542C26.7255 25.2246 26.1009 25.8489 25.3309 25.8489H15.8471C15.0767 25.8489 14.4524 25.2246 14.4524 24.4542C14.4524 23.6839 15.0767 23.0595 15.8471 23.0595H25.3309C26.1009 23.0595 26.7255 23.6839 26.7255 24.4542ZM12.3607 18.8755C12.3607 19.6459 11.7363 20.2702 10.966 20.2702C10.1957 20.2702 9.57133 19.6459 9.57133 18.8755C9.57133 18.1052 10.1957 17.4809 10.966 17.4809C11.7363 17.4809 12.3607 18.1052 12.3607 18.8755ZM12.3607 24.4542C12.3607 25.2246 11.7363 25.8489 10.966 25.8489C10.1957 25.8489 9.57133 25.2246 9.57133 24.4542C9.57133 23.6839 10.1957 23.0595 10.966 23.0595C11.7363 23.0595 12.3607 23.6839 12.3607 24.4542ZM35.7394 26.6568L28.8369 36.2983C28.8219 36.3193 28.8064 36.3397 28.79 36.3599C28.1635 37.1397 27.2316 37.6251 26.2336 37.6916C26.1546 37.6971 26.0753 37.6995 25.9966 37.6995C25.0805 37.6995 24.1898 37.3465 23.5227 36.7113C23.5183 36.7072 23.5142 36.7031 23.5102 36.6993L19.0597 32.3562C18.5084 31.8182 18.4975 30.9351 19.0355 30.3838C19.5735 29.8327 20.4563 29.8218 21.0076 30.3598L25.4504 34.6955C25.6697 34.9009 25.9184 34.9173 26.0478 34.9085C26.1739 34.9004 26.409 34.8532 26.597 34.6356L33.4712 25.0333C33.9195 24.4068 34.7909 24.2627 35.4172 24.7111C36.0434 25.1595 36.1875 26.0306 35.7394 26.6568Z"
    fill="#161616"
    stroke="#FFF281"
    stroke-width="0.5"
  ></path>
</svg>

<svg width="40" height="40" viewBox="0 0 40 40" fill="none" xmlns="http://www.w3.org/2000/svg"><path d="M17.451 34.914H9.579a2.793 2.793 0 0 1-2.79-2.79V11.066a2.793 2.793 0 0 1 2.79-2.789h4.385v.697a4.189 4.189 0 0 0 4.184 4.184 4.189 4.189 0 0 0 4.184-4.184v-.697h4.393a2.793 2.793 0 0 1 2.79 2.79v10.599a1.394 1.394 0 1 0 2.79 0v-10.6a5.585 5.585 0 0 0-5.58-5.578h-4.393V3.395c0-.77-.624-1.395-1.394-1.395h-5.58c-.77 0-1.394.624-1.394 1.395v2.092H9.58A5.585 5.585 0 0 0 4 11.065v21.06a5.585 5.585 0 0 0 5.579 5.579h7.872a1.395 1.395 0 0 0 0-2.79ZM16.754 4.79h2.789v4.184a1.396 1.396 0 0 1-2.79 0V4.79Zm9.971 14.086c0 .77-.624 1.395-1.394 1.395h-9.554a1.395 1.395 0 1 1 0-2.79h9.554c.77 0 1.395.625 1.395 1.395Zm0 5.58c0 .77-.624 1.394-1.394 1.394h-9.484a1.395 1.395 0 1 1 0-2.79h9.484c.77 0 1.395.625 1.395 1.395Zm-14.364-5.58a1.395 1.395 0 1 1-2.79 0 1.395 1.395 0 0 1 2.79 0Zm0 5.58a1.395 1.395 0 1 1-2.79 0 1.395 1.395 0 0 1 2.79 0Zm23.378 2.202-6.902 9.641a3.594 3.594 0 0 1-2.84 1.401 3.595 3.595 0 0 1-2.474-.988l-.013-.012-4.45-4.343a1.395 1.395 0 0 1 1.948-1.996l4.442 4.336a.79.79 0 0 0 .598.212.79.79 0 0 0 .549-.272l6.874-9.603a1.395 1.395 0 1 1 2.268 1.624Z" fill="#161616" stroke="#FFF281" stroke-width=".5"/></svg>
